html/assets/images/Icons/magic-light.svg

<svg aria-hidden="true" focusable="false" data-prefix="fal" data-icon="magic" class="svg-inline--fa fa-magic fa-w-16" role="img" xmlns="http://www.w3.org/2000/svg" viewBox="0 0 512 512"><path fill="currentColor" d="M224 96l16-32 32-16-32-16-16-32-16 32-32 16 32 16 16 32zM80 160l26.66-53.33L160 80l-53.34-26.67L80 0 53.34 53.33 0 80l53.34 26.67L80 160zm0-96c8.84 0 16 7.16 16 16s-7.16 16-16 16-16-7.16-16-16 7.16-16 16-16zm352 224l-26.66 53.33L352 368l53.34 26.67L432 448l26.66-53.33L512 368l-53.34-26.67L432 288zm0 96c-8.84 0-16-7.16-16-16s7.16-16 16-16 16 7.16 16 16-7.16 16-16 16zm70.63-306.04L434.04 9.37C427.79 3.12 419.6 0 411.41 0s-16.38 3.12-22.63 9.37L9.37 388.79c-12.5 12.5-12.5 32.76 0 45.25l68.59 68.59c6.25 6.25 14.44 9.37 22.63 9.37s16.38-3.12 22.63-9.37l379.41-379.41c12.49-12.5 12.49-32.76 0-45.26zM100.59 480L32 411.41l258.38-258.4 68.6 68.6L100.59 480zm281.02-281.02l-68.6-68.6L411.38 32h.03L480 100.59l-98.39 98.39z"></path></svg>

<?xml version="1.0" encoding="utf-8"?>
<!-- Generator: Adobe Illustrator 24.1.3, SVG Export Plug-In . SVG Version: 6.00 Build 0)  -->
<svg version="1.1" id="Ebene_1" focusable="false" xmlns="http://www.w3.org/2000/svg" xmlns:xlink="http://www.w3.org/1999/xlink"
	 x="0px" y="0px" viewBox="0 0 512 512" style="enable-background:new 0 0 512 512;" xml:space="preserve">
<style type="text/css">
	.st0{fill:#2CE59E;}
</style>
<path class="st0" d="M224,96l16-32l32-16l-32-16L224,0l-16,32l-32,16l32,16L224,96z M80,160l26.7-53.3L160,80l-53.3-26.7L80,0
	L53.3,53.3L0,80l53.3,26.7L80,160z M80,64c8.8,0,16,7.2,16,16s-7.2,16-16,16s-16-7.2-16-16S71.2,64,80,64z M432,288l-26.7,53.3
	L352,368l53.3,26.7L432,448l26.7-53.3L512,368l-53.3-26.7L432,288z M432,384c-8.8,0-16-7.2-16-16s7.2-16,16-16s16,7.2,16,16
	S440.8,384,432,384z M502.6,78L434,9.4C427.8,3.1,419.6,0,411.4,0S395,3.1,388.8,9.4L9.4,388.8c-12.5,12.5-12.5,32.8,0,45.2
	L78,502.6c6.2,6.2,14.4,9.4,22.6,9.4s16.4-3.1,22.6-9.4l379.4-379.4C515.1,110.7,515.1,90.5,502.6,78L502.6,78z M100.6,480L32,411.4
	L290.4,153l68.6,68.6L100.6,480z M381.6,199L313,130.4L411.4,32h0l68.6,68.6L381.6,199L381.6,199z"/>
</svg>
